symbols/web/filter_drama/materialsymbolsrounded/filter_drama_wght300grad200_48px.svg

<svg xmlns="http://www.w3.org/2000/svg" height="48" width="48"><path d="M12.55 39.75q-4.25 0-7.325-3T2.15 29.5q0-4 2.525-6.95t6.275-3.45q.95-4.65 4.65-7.75 3.7-3.1 8.45-3.1 5.25 0 9.125 3.75t4.125 9.3v1.9h.6q3.45.15 5.7 2.5t2.25 5.75q0 3.45-2.425 5.875T37.55 39.75Zm0-2.9h25q2.2 0 3.8-1.6 1.6-1.6 1.6-3.8 0-2.2-1.6-3.8-1.6-1.6-3.8-1.6h-3.2v-4.1q0-4.4-2.95-7.6-2.95-3.2-7.35-3.2-3.5 0-6.4 2.175-2.9 2.175-3.7 5.825 3.4.5 5.85 2.7 2.45 2.2 2.95 5.6.05.65-.35 1.125-.4.475-1.05.475-.5 0-.975-.4t-.625-1q-.5-2.55-2.55-4.15-2.05-1.6-4.75-1.6-3.15 0-5.275 2.15Q5.05 26.2 5.05 29.4q0 3.15 2.175 5.3t5.325 2.15Z"/></svg>

<svg xmlns="http://www.w3.org/2000/svg" height="48" width="48"><path d="M12.55 39.75Q8.3 39.75 5.225 36.75Q2.15 33.75 2.15 29.5Q2.15 25.5 4.675 22.55Q7.2 19.6 10.95 19.1Q11.9 14.45 15.6 11.35Q19.3 8.25 24.05 8.25Q29.3 8.25 33.175 12Q37.05 15.75 37.3 21.3V23.2H37.9Q41.35 23.35 43.6 25.7Q45.85 28.05 45.85 31.45Q45.85 34.9 43.425 37.325Q41 39.75 37.55 39.75ZM12.55 36.85H37.55Q39.75 36.85 41.35 35.25Q42.95 33.65 42.95 31.45Q42.95 29.25 41.35 27.65Q39.75 26.05 37.55 26.05H34.35V21.95Q34.35 17.55 31.4 14.35Q28.45 11.15 24.05 11.15Q20.55 11.15 17.65 13.325Q14.75 15.5 13.95 19.15Q17.35 19.65 19.8 21.85Q22.25 24.05 22.75 27.45Q22.8 28.1 22.4 28.575Q22 29.05 21.35 29.05Q20.85 29.05 20.375 28.65Q19.9 28.25 19.75 27.65Q19.25 25.1 17.2 23.5Q15.15 21.9 12.45 21.9Q9.3 21.9 7.175 24.05Q5.05 26.2 5.05 29.4Q5.05 32.55 7.225 34.7Q9.4 36.85 12.55 36.85Z"/></svg>
